X:1
T:Vermiglio e vago
T:Ruggiero Giovanelli
T:Source : Canzonette a la Romana---Venetia---Ang.Gardano---1601. Editor : André Vierendeels (26/01/17).
T:Notes : Original clefs : G2, C1, C4
T:Vermiglio e vago
T:©
T:©
C:Ruggiero Giovanelli
Z:©
%%score [ 1 2 3 ]
L:1/8
Q:1/4=126
M:4/4
K:C
V:1 treble nm="Soprano 1" snm="S 1"
V:2 treble nm="Soprano 2" snm="S 2"
V:3 treble-8 nm="Tenor" snm="T"
V:1
 z2 d2 d2 B2 | cBcd ef g2- | g2 f2 e3 d/c/ | dcBc d4 | e4 e4 | d6 c2 | d2 B2 A4 |[M:2/4] G4 :: %8
w: Ver- mi- glio'e|va- * * * * * *|* go fio- * *||re, e|di so-|a- ve'o- do-|re,|
w: Non gia per|dar _ _ _ _ _ _|_ a- i- * *||ta, al-|la mor-|tal fe- ri-|ta,|
[M:4/4] g4 f4 | e4 d4 | c4 c2 BA | B4 A2 a2 | g3 f e4 | d2 d2 c3 B | A2 A2 z2 GG | A2 A2 B4 | %16
w: il qual|con leg-|gia- dri- * *|* a, in|man mi die-|de, in man mi|die- dre la si-|gno- ra mi-|
w: m'ac- cio|mag- gior|tor- men- * *|* to, si|giun- g'a quel-|la, si giun- g'a|quel- la chio me-|schi- no sen-|
 c4 z2 d2 | c3 B A4 | G2 GG A2 B2 | A4 !fermata!G4 :| %20
w: a, in|man mi die-|de la si- gno- ra|mi- a.|
w: to, si|giun- g'a quel-|la ch'io me- schi- no|sen- to.|
V:2
 z2 B2 B2 G2 | AGAB cdec | d2 A2 c3 B/A/ | Bcdc B4 | c4 c4 | B2 A2 B2 G2 | ^F2 G4 F2 |[M:2/4] G4 :: %8
w: Ver- mi- glio|va- * * * * * * *|* go fio- * *||re, e|di so- a- ve'o-|do- * *|re|
w: Ri- tor- na|fior _ _ _ _ _ _ _|_ so- a- * *||ve, in|ma- no di chi|ha- * *|ve,|
[M:4/4] z4 z2 d2 | c3 B A2 A2 | A6 ^G^F | ^G4 A2 A2 | B2 B2 c4 | d2 DD E2 E2 | ^F4 G4 | z4 G4 | %16
w: il|qual con leg- gia-|dri- * *|* a, in|man mi die-|de, la si- gno- ra|mi- a,|in|
w: col|suo leg- gia- dro'as-|pet- * *|* to, tol-|to- m'il cor|dall' in- fo- ca- to|pet- to,|tol-|
 F3 E D4 | E2 EE F2 F2 | G3 E ^F2 G2- | G2 ^F2 !fermata!G4 :| %20
w: man mi die-|de la si- gno- ra|mi- * * *|* * a.|
w: to m'il cor|dall' in- fo- ca- to|pet- * * *|* * to.|
V:3
 G8 | F4 E4 | D4 C4 | G8 | C4 C4 | G2 ^F2 G2 E2 | D8 |[M:2/4] G4 ::[M:4/4] z2 G2 A2 B2 | %9
w: Ver-|mi- glio'e|va- go|fio-|re, e|di so- a- ve'o-|do-|re,|il qual con|
w: Dil-|le con|vo- ce'hu-|mi-|le, si-|gno- ra mia gen-|ti-|le,|non ba- sta|
 c2 C2 DEFG | ABcd e4- | e4 A4 | z4 z2 AA | B2 B2 c4 | d2 d2 c3 B | A4 G2 GG | A2 A2 B4 | %17
w: leg- gia- dri- * * *||* a|la si-|gno- ra mi-|a, in man mi|die- de, la si-|gno- ra mi-|
w: da' un fio- * * *||* re|a chi|ti di- re|lo spir- to l'al-|ma, a chi ti|di- re lo|
 c2 cc d4 | e4 d4- | d4 !fermata!G4 :| %20
w: a, la si- gno-|ra mi-|* a.|
w: spir- to, l'al- ma,|e'l co-|* re.|

